X:180
T:The Designing Woman
C:"Vivace" by Vivaldi
%%MIDI beat 100 95 80
S:Colin Hume's website,  colinhume.com  - chords can also be printed below the stave.
Q:1/4=120
M:3/4
L:1/4
K:Gm
P:A
g | "Gm"gbd | "Cm"c/B/ca | "Gm"BA/B/ c/d/ | "D7"BAd | "Gm"gf"A7"=e | "Dm"f/=e/ d/^c/d- | "Gm"d/=e/ f"A7"e | "Dm"d2g |
"Gm"gbd | "Cm"c/B/ca | "Gm"BA/B/ c/d/ | "D7"BAd | "Gm"gab | "Cm"(3e/d/e/ c'/e/ d/c/ | "Gm"B/c/ "D7"AG | "Gm"G2D |
P:B
"Gm"Gdd | "Gm"dc/B/ c/d/ | "Cm"eee | "F7"ed/c/ d/e/ | "Bb"fbb | "D7"ga2 |
"D7"^f/g/ a/d/ a/c'/ | "Gm"bc'/b/ a/g/ | "D7"d2=e/^f/ | "Gm"g2g |
P:C
"Gm"gbd | "Cm"c/B/ca | "Gm"BA/B/ c/d/ | "D7"BAd | "Gm"g/f/ f/e/ e/d/ | "Cm"e/d/ d/c/ c/B/ |
"F7"f/e/ e/d/ d/c/ | "Bb"d/c/ c/B/ B/A/ | "Cm"e/d/ d/c/ c/B/ | "Cm"c/B/ B/A/ A/G/ | "D7"dD^F | "Gm"G2 |]

